X:1
T: Away Back
C:
R:Reel
I:speed 232
Q:232
K:A
M:4/4
L:1/8
|:e|a2g2 a2e2|fe df ecA2|B2^A2 B2E2|EG Bc Be fg|
a2g2 a2e2|fe df ecA2|B2^A2 B2E2|EG Bc A2:|
|:cB|A2a2 A2a2|fe df ecA2|E2e2 E2e2|dc BA GFE2|
A2a2 A2a2|fe df ecA2|E2e2 E2e2|ge fg a2:|
